X: 1
T: Bare Necessities
R: waltz
N: English country dance (longways)
C: Pat Shaw
B:
D:
Z: John Chambers <jc@trillian.mit.edu>
M: 3/4
L: 1/8
K: EDor
|: "Em"B4 A2 | GF E4 | "A"e4 d2 | cB A4 \
| "Em"B4 A2 | GF E2 G2 | "Bm"FE D2 F2 |1 "Em"E3 FGA :|2 "Em"E6 ||
|| "Em"g4 a2 | ba gf e2 | "D"fg ag fe | "Bm"d3 c B2 \
|  "Em"g4 a2 | ba gf ed | "A"c2 A2 c2 | e4 dc |
|  "G"BA GA Bc | "D"d2 A2 F2 | "Em"GF EF GA | "B7"B4 c^d \
|  "E"e4 b2 | ^gf e2 g2 | "A"f2 e2 c2 | "E"e6 |]
